!!!!SEGMENT: Wil3028-Qui_est_celuy_qui_a_dit_mal_du_con.krn
!!!id: Wil3028
!!!AGN: Chanson
!!!SCT: Bernstein (1984)
!!!voices: 3
!!!COM: Adrian Willaert
!!!OTL: Qui est celuy qui a dit mal du con
**kern	**kern	**kern
*part3	*part2	*part1
*staff3	*staff2	*staff1
*I"Bassus	*I"Tenor	*I"Superius
*I'B	*I'T	*I'S
*clefF4	*clefGv2	*clefGv2
*k[b-]	*k[b-]	*k[b-]
*F:	*F:	*F:
*M2/1	*M2/1	*M2/1
*met(C|)	*met(C|)	*met(C|)
=1	=1	=1
1D	0r	0r
2E	.	.
2F	.	.
=2	=2	=2
2.G	0d	1G
8FL	.	.
8EJ	.	.
1D	.	2A
.	.	2B-y
=3	=3	=3
0C	1.e	2.c
.	.	8B-yL
.	.	8AJ
.	.	2G
.	2e	2g
=4	=4	=4
2r	1.d	2f
2G	.	2g
2F	.	4a
.	.	4g
2F	2c	4f
.	.	4e
=5	=5	=5
2G	2B-y	2d
2G	2B-y	1g
1D	2A	.
.	2A	2f#i
=6	=6	=6
2r	0G	1g
2C	.	.
2.E	.	1r
4F	.	.
=7	=7	=7
2.G	0d	2r
.	.	2G
8FL	.	.
8EJ	.	.
1D	.	2A
.	.	2B-y
=8	=8	=8
0C	1.e	2.c
.	.	8B-yL
.	.	8AJ
.	.	2G
.	2e	2c
=9	=9	=9
2r	1.d	2.B-y
2D	.	.
.	.	4A
2E	.	2G
2F	2c	2A
=10	=10	=10
2G	2B-y	2G
2G	2B-y	1g
2D	2A	.
2A	2A	2f#i
=11	=11	=11
2.B-y	0G	2g
.	.	2G
4c	.	.
2d	.	2.B-y
2d	.	.
.	.	4c
=12	=12	=12
2G	1B-y	2d
2d	.	2d
2d	2B-y	1G
2d	2B-y	.
=13	=13	=13
2c	1A	2r
2.F	.	2c
.	1A	2c
4G	.	.
4A	.	2c
4F	.	.
=14	=14	=14
2G	1d	2B-y
2.B-y	.	2f
.	1d	2f
4c	.	.
4d	.	2f
4B-y	.	.
=15	=15	=15
2c	1A	1e
2c	.	.
1B-y	1d	2r
.	.	2f
=16	=16	=16
2r	2c	2g
2F	4B-y	2a
.	4A	.
2G	1B-y	2d
2G	.	2g
=17	=17	=17
2D	1A	2f
2F	.	4e
.	.	4d
2G	1r	1e
2A	.	.
=18	=18	=18
4D	0F	1d
4E	.	.
4F	.	.
4G	.	.
4A	.	2r
4B-y	.	.
2c	.	2f
=19	=19	=19
2.B-y	1.G	2.e
4A	.	8dL
.	.	8cJ
1B-y	.	1d
.	2G	.
=20	=20	=20
0F	1.A	1c
.	.	2r
.	2A	2c
=21	=21	=21
2r	1d	2.B-y
2G	.	.
.	.	8AL
.	.	8GJ
2F	1d	2A
4E	.	2B-y
4D	.	.
=22	=22	=22
2E	1c	2G
2F	.	2.A
1C	1c	.
.	.	4G
.	.	2e
=23	=23	=23
2r	1G	2d
2G	.	4c
.	.	4B-y
2F	1A	2c
4E	.	[2d
4D	.	.
=24	=24	=24
1E	1G	4d]
.	.	4c
.	.	2c
1D	1r	2d
.	.	2d
=25	=25	=25
2r	0F	4c
.	.	4B-y
2D	.	4A
.	.	4G
2D	.	1A
2D	.	.
=26	=26	=26
2.E	1.G	2r
.	.	2G
4F	.	.
2G	.	2.B-y
2E	2G	.
.	.	4c
=27	=27	=27
4D	1A	2d
4E	.	.
4F	.	2.c
4G	.	.
4A	1A	.
4B-y	.	4d
2c	.	4e
.	.	4f
=28	=28	=28
2G	1d	2g
1B-y	.	2.f
.	1d	.
.	.	4g
[2F	.	[2a
=29	=29	=29
4F]	1c	2a]
4G	.	.
1A	.	4g
.	.	4f
.	1c	2e
4G	.	[2a
4F	.	.
=30	=30	=30
1E	1G	4a]
.	.	4g
.	.	1g
1D	1A	.
.	.	2f#i
=31	=31	=31
2r	2r	1g
2d	2G	.
2d	2G	2r
2B-y	2G	2g
=32	=32	=32
4c	1.A	2e
4B-y	.	.
4A	.	2e
4G	.	.
1F	.	4f
.	.	4e
.	2A	4d
.	.	4c
=33	=33	=33
2G	1d	2.B-y
2G	.	.
.	.	4c
2D	1d	4d
.	.	4e
2D	.	[2f
=34	=34	=34
2.F	1.c	4f]
.	.	4g
.	.	4a
8EL	.	4f
8DJ	.	.
2C	.	2g
2F	2c	[2a
=35	=35	=35
1E	1G	4a]
.	.	4g
.	.	1g
1D	1A	.
.	.	2f#i
=36	=36	=36
00Gl	00Gl	00gl
==	==	==
*-	*-	*-
!!!system-decoration: [*]
!!!RDF**kern: i = editorial accidental
!!!RDF**kern: l = terminal long
!!!ENC: Benjamin Ory
!!!END: 2023/9/28
!!!EED: Benjamin Ory
!!!EEV: 2023/09/28
!!!YEC: Copyright 2023 Benjamin Ory, All Rights Reserved
!!!ONB: Translated from MusicXML on 2023/09/28
